X: 169
T:Lonesome Fiddle Blues
S:Steve Keating. CoMando, 8/87
M:4/4
L:1/8
C:Vasser Clements
P:AABA
N:Suggested fingering in 28th measure is B string, 8th fret for "f" note
N:and open E string for "e" note.  B part chord progression is G-D-E-A.
K:Dmin
A,=C|"Dm"DCDE =FEFG|AGA_B AGDB,|"C"=CB,CD EDE=F|GA=cA G=FEC|
"Dm"DCDE =FEFG|AGA_B AG=FE|=FGAd =fed=c|"C"A=F (3EFE "Dm"D2 A,=C|
"Dm"DCDE =FEFG|AGA_B AGDB,|"C"=CB,CD EGAB|=cd (3BcB AG=FE|
"Dm"DCDE =FEFG|AGA_B AGAd|=fed=c AcAG|"C"=FDEC "Dm"D2 B,A,|
"G"G,A,B,E DEGA|BAGB AGEC|"D"DFAd Bcde|fded Bcde|
^gfef edBd|BA^GA BGAB|"A"A2 AB cef^g|ae=gf eA=c^c|
"Dm"dcde =fefg|a_bag =feAB|"C"=cBcd egag|_baga g=fe=c|
"Dm"d=cde =fefg|a_bag =fedf|(3^g=g=f gf ed=cB|"C"AG=FE "Dm" D4|]
